X: 3
T: Windmill, The
C: Ciaran Tourish
Z: Thomas Foschini
S: https://thesession.org/tunes/193#setting40938
R: reel
M: 4/4
L: 1/8
K: Dmaj
|:d2 fd ceAc|dBGB AFDE|FB (3BBB Adfd|eAce afge|
d2 fd ceAc|dBGB AFDF|GFGB Adfa 1 gece d2 (3ABc:|2 gece defg||
|:eA (3AAA a3 f|gA (3AAA dFAd|(3BBB AB G3 F|EB,EF GABc|
dA (3AAA eAaA|fddc dfed|cdef gfga|1 gece defg:|2 gece d2 (3ABc||

